packages/nodes-base/nodes/Transform/Aggregate/aggregate.svg

<svg xmlns="http://www.w3.org/2000/svg" width="512" height="512" fill="none"><g fill="#FF6D5A" clip-path="url(#a)"><path fill-rule="evenodd" d="M32 148c0-6.627 5.373-12 12-12h146c6.627 0 12 5.373 12 12v24c0 6.627-5.373 12-12 12H44c-6.627 0-12-5.373-12-12zm0 96c0-6.627 5.373-12 12-12h146c6.627 0 12 5.373 12 12v24c0 6.627-5.373 12-12 12H44c-6.627 0-12-5.373-12-12zm0 96c0-6.627 5.373-12 12-12h146c6.627 0 12 5.373 12 12v24c0 6.627-5.373 12-12 12H44c-6.627 0-12-5.373-12-12z" clip-rule="evenodd"/><path d="M74 76c0 6.627 5.373 12 12 12h116.217c17.673 0 32 14.327 32 32v56c0 26.978 10.272 51.557 27.119 70.039 5.055 5.545 5.055 14.377 0 19.922-16.847 18.482-27.119 43.061-27.119 70.039v56c0 17.673-14.327 32-32 32H86c-6.627 0-12 5.373-12 12v24c0 6.627 5.373 12 12 12h116.217c44.183 0 80-35.817 80-80v-56c0-30.928 25.072-56 56-56a5.783 5.783 0 0 0 5.783-5.783v-36.434a5.783 5.783 0 0 0-5.783-5.783c-30.928 0-56-25.072-56-56v-56c0-44.183-35.817-80-80-80H86c-6.627 0-12 5.373-12 12z"/><path fill-rule="evenodd" d="M376 244c0-6.627 5.373-12 12-12h112c6.627 0 12 5.373 12 12v24c0 6.627-5.373 12-12 12H388c-6.627 0-12-5.373-12-12z" clip-rule="evenodd"/></g><defs><clipPath id="a"><path fill="#fff" d="M0 0h512v512H0z"/></clipPath></defs></svg>

<svg width="512" height="512" viewBox="0 0 512 512" fill="none" xmlns="http://www.w3.org/2000/svg">
<g clip-path="url(#clip0_1147_318)">
<path fill-rule="evenodd" clip-rule="evenodd" d="M32 148C32 141.373 37.3726 136 44 136L190 136C196.627 136 202 141.373 202 148L202 172C202 178.627 196.627 184 190 184L44 184C37.3726 184 32 178.627 32 172L32 148Z" fill="#FF6D5A"/>
<path fill-rule="evenodd" clip-rule="evenodd" d="M32 244C32 237.373 37.3726 232 44 232L190 232C196.627 232 202 237.373 202 244L202 268C202 274.627 196.627 280 190 280L44 280C37.3726 280 32 274.627 32 268L32 244Z" fill="#FF6D5A"/>
<path fill-rule="evenodd" clip-rule="evenodd" d="M32 340C32 333.373 37.3726 328 44 328L190 328C196.627 328 202 333.373 202 340L202 364C202 370.627 196.627 376 190 376L44 376C37.3726 376 32 370.627 32 364L32 340Z" fill="#FF6D5A"/>
<path d="M74 76C74 82.6274 79.3726 88 86 88H202.217C219.89 88 234.217 102.327 234.217 120V176C234.217 202.978 244.489 227.557 261.336 246.039C266.391 251.584 266.391 260.416 261.336 265.961C244.489 284.443 234.217 309.022 234.217 336V392C234.217 409.673 219.89 424 202.217 424H86C79.3726 424 74 429.373 74 436V460C74 466.627 79.3726 472 86 472H202.217C246.4 472 282.217 436.183 282.217 392V336C282.217 305.072 307.289 280 338.217 280V280C341.411 280 344 277.411 344 274.217V237.783C344 234.589 341.411 232 338.217 232V232C307.289 232 282.217 206.928 282.217 176V120C282.217 75.8172 246.4 40 202.217 40H86C79.3726 40 74 45.3726 74 52V76Z" fill="#FF6D5A"/>
<path fill-rule="evenodd" clip-rule="evenodd" d="M376 244C376 237.373 381.373 232 388 232L500 232C506.627 232 512 237.373 512 244L512 268C512 274.627 506.627 280 500 280L388 280C381.373 280 376 274.627 376 268L376 244Z" fill="#FF6D5A"/>
</g>
<defs>
<clipPath id="clip0_1147_318">
<rect width="512" height="512" fill="white"/>
</clipPath>
</defs>
</svg>
